X:2594
T:Polska efter Johan Lundin
S:efter Johan Lundin
B:http://www.smus.se/earkiv/fmk/browselarge.php?lang=sw&katalogid=M+6&bildnr=00017
Z:Nils L
R:Slängpolska
O:Uppland
M:3/4
L:1/16
K:A
e2e2 ^defe dcBA | GAce agfe dcBA | GFGB d2d2 d4 |1 d2cB cAce B4 :|2
cecA cecA B4 |: e2c2 AEAc BGBd | cAce dBdf f2e2 | e2c2 AEAc BGBd |1
cBAG ABcd efga :|2 cBAG A4 z4 |]
(:musicend:)
(:music:)
